!!!SOCIAL_FUNCTION:	winter dance songs
!!!PDT:	1957
!!!OTL: No_23_Winter_Dance_Song_(a).krn
!!!LING_GROUP: Keresan
!!!LANG: Tone
!!!REG: Southwest
**kern
*staff1
=1-
*clefG2
*k[]
*M3/4
8G/L
8G/J
4G/
4G/
=2!|:
*M2/4
4g/
4g/
=3
8.g/L
16e/Jk
12d/L
12c/
12c/J
=4
4d/
4d/
=5
8.d/L
16c/Jk
12c/L
12A/
12A/J
=6
16d/LK
8.d/J
16d/LL
16c/JJ
8r
=7
*M3/4
16d/LK
8.d/J
8d/
8r
4r
=8:|!
*M2/4
16d/LK
8.d/J
8e/L
8g/J
=9
16d/LK
8.c/J
8c/L
16A/L
16A/JJ
=10
16c/LL
16A/
16A/
16G/JJ
8G/L
16G/L
16G/JJ
=11
8A/L
8A/J
4A/
=12
16d/LK
8.d/J
8e/L
8g/J
=13
16d/LK
8.c/J
8c/L
16A/L
16A/JJ
=14
4d/
4d/
=15
*M3/4
8d/L
8c/J
8c/L
8A/J
8G/L
8A/J
=16
4G/
4G/
8G/
8r
=17
*M2/4
8.A/L
16G/Jk
8F/L
8F/J
=18
*M3/4
4F/
4F/
8F/
8r
=19
*M2/4
8.d/L
16d/Jk
8.d/L
16A/Jk
=20
4d/
4d/
=21
*M3/4
8d/L
8c/J
8.c/L
16A/Jk
8.G/L
16A/Jk
=22
4G/
8.G/L
16G/Jk
4G/
=23
*M2/4
4G/
4G/
=24
4G/
8G/
8r
==
*-
